X:15
T:Trip to Harrowgate, A
M:6/8
L:1/8
N:Measure 4, ‘A' part, can also be played | AED CB,A, |
N:Measure 8, ‘B' part, can also be played | AEC A,2 :|
B:Thompson's Compleat Collection of 200 Favourite Country Dances, vol. 2 (London, 1765)
Z:Transcribed and edited by Flynn Titford-Mock, 2007
Z:abc's:AK/Fiddler's Companion
K:A
E | Aec Aec | Bcd d3 | cBA GAB | Aed cBA | Aec Ace | agf gfe | dBe fe^d | eBG E2 :|
|: e | e=gf edc | dBd f^ab | dfe dcB | cAc ega | fed cBA | GFE dBd | cBA BAG | Aec A2 :|

